X:1
T:I Do, Don’t You?
T:I Do, Don’t You?
T:Edwin Othello Excell
T:Melville Winans Miller, 1907
T:Public Domain Courtesy of the Cyber Hymnal™
C:Edwin Othello Excell
Z:Public Domain
Z:Courtesy of the Cyber Hymnal™
%%score ( 1 2 ) 3
L:1/8
Q:1/4=80
M:6/8
K:G
V:1 treble 
V:2 treble 
V:3 bass 
V:1
 [B,D] | [DG]>[DA][GB] [EA]<[EG][CE] | [B,D]2 [^A,E] [B,D]2 [B,D] | [DG]>[DA][GB] [GB]<[DA][DG] | %4
w: 1.~I|know a great Sav- ior, I|do; don’t you? I|live by His fa- vor, I|
w: 2.~I|need Him to lead me, I|do; don’t you? Heav’n’s|man- na to feed me, I|
w: 3.~I|love to be near Him, I|do; don’t you? He|speaks and I hear Him, I|
w: 4.~I|want Him to use me, I|do; don’t you? For|ser- vice to choose me, I|
 [Dd]2 [B,D] [CD]2 [DB] | [Bd]>[^A^c][Bd] [=ce]<[Bd]D | [DB]>[^C^A][DB] [E=c]<[DB][DG] | %7
w: do; don’t you? For|grace I im- plore Him, I|wor- ship be- fore Him, I|
w: do; don’t you? What-|ev- er be- tide me, I|need Him be- side me, In|
w: do; don’t you? For|me He is car- ing, the|cross I am bear- ing, I|
w: do; don’t you? I|want Him to bless me, to|own and con- fess me, Com-|
 [EA]<[EG][CE] [B,D]<[B,G][DB] | [B,D]2 [CD] [B,G]2 |] %9
w: love and a- dore Him, I|do; don’t you?|
w: mer- cy to hide me, I|do; don’t you?|
w: love Him for shar- ing, I|do; don’t you?|
w: plete- ly pos- sess me, I|do; don’t you?|
V:2
 x | x6 | x6 | x6 | x6 | x5 D | x6 | x6 | x5 |] %9
V:3
 [G,,G,] | [G,B,]>[G,C][G,D] [C,C]<[C,C][C,G,] | [G,,G,]2 [G,,G,] [G,,G,]2 [G,,G,] | %3
 [G,B,]>[G,C][G,D] [G,D]<[G,C][G,B,] | [D,B,]2 [D,G,] [D,A,]2 [G,,G,] | %5
 [G,D]>[G,D][G,D] [G,D]<[G,D][G,B,] | [G,,G,]>[G,,G,][G,,G,] [G,,G,]<[G,,G,][B,,G,] | %7
 [C,G,]<[C,G,][C,G,] [G,,G,]<[G,,G,][G,,G,] | [D,G,]2 [D,A,] [G,,G,]2 |] %9

